X:1
T:Title
%%score { 1 | 2 }
L:1/8
M:4/4
K:A
V:1 treble nm="Grand Piano"
V:2 bass 
V:1
 z4 z2[Q:1/4=100] [CE][CE] | [Ec] [Ec]2 [DB] [CA]2 [CA][EA] | [FB] [FA]2 [EG] [DF]3 [DF] | %3
 [CE] [EA]2 [EB] [Ec] [Ed]2 [Ec] | [EB]6 [CE][CE] | [Ec] [Ec]2 [DB] [CA]2 [CA][EA] | %6
 [FB] [FA]2 [EG] [DF]2 [Fd]2 | [Ec] [Ee]2 [Fd] c c2 B |[M:3/4] [CA]6 |[M:1/4] [Ec]2 | %10
[M:4/4] [CE] [CE]2 [EA] G F2 G | [CA]6 [Ec]2 | [^DB] [DB]2 [Dc] [DB] [DA]2 F | B6 dd | %14
 [Ec] [Ec]2 [^D=c] [E^c]2 [CA][CA] | B A2 F [FA]2 [^EB]2 | [Ec] [Ae]2 [Fd] c c2 B |[M:3/4] [CA]6 |] %18
V:2
 z4 z2 [A,,A,][A,,A,] | [A,,A,] [A,,A,]2 [A,,E,] [A,,E,]2 [A,,E,][C,A,] | %2
 [D,A,] [D,D]2 [D,D] [D,A,]3 [D,A,] | [A,,A,] [C,A,]2 [B,,G,] [A,,A,] [G,,B,]2 [A,,A,] | %4
 [E,G,]6 [A,,A,][A,,A,] | [A,,A,] [A,,A,]2 [A,,E,] [A,,E,]2 [A,,A,][C,A,] | %6
 [D,D] [D,D]2 [D,D] [D,A,]2 [D,A,]2 | [A,,A,] [C,A,]2 [D,A,] [E,A,E] [E,A,E]2 [E,G,D] | %8
[M:3/4] [A,,A,]6 |[M:1/4] [A,,A,]2 |[M:4/4] [A,,A,] [A,,A,]2 [C,A,] [E,B,D] [E,A,D]2 [E,B,D] | %11
 [A,,A,]6 [A,,A,]2 | [B,,A,] [B,,A,]2 [B,,A,] [B,,B,] [B,,B,]2 [F,A,^D] | [E,G,E]6 [E,G,E][E,G,E] | %14
 [A,,A,] [A,,A,]2 [A,,A,] [A,,A,]2 [A,,E,][A,,=G,] | [D,F,D] [D,F,D]2 [D,A,D] [D,A,]2 [^D,A,]2 | %16
 [E,A,] [C,A,]2 [D,A,] [E,A,E] [E,A,E]2 [E,G,D] |[M:3/4] [A,,E,]6 |] %18

